X:1
T:The Judgment Day
T:The Judgment Day
T:George Crawford Hugg
T:Johnson Oatman, Jr., 1898
T:Public Domain Courtesy of the Cyber Hymnal™
T:Public Domain Courtesy of the Cyber Hymnal™
C:George Crawford Hugg
Z:Public Domain
Z:Courtesy of the Cyber Hymnal™
%%score ( 1 2 ) ( 3 4 )
L:1/8
Q:1/4=100
M:4/4
K:G
V:1 treble 
V:2 treble 
V:3 bass 
V:4 bass 
V:1
 E>F | [EG]2 G2 [EG]2 G>G | [^DF]2 E2 [DB]4 | B>c B>A G>F E>F | [EG]2 [^DF]2 !fermata!E2 E>F | %5
w: 1.~At the|bar of God you will|have to stand,|When the books are o- pened by the|Sav- ior’s hand; Then for|
w: 2.~There you’ll|meet each friend, there you’ll|meet each foe,|Will they bring you plea- sure? Will they|cause you woe? For the|
w: 3.~Ev- ery|act of life will be|there made known,|When we see our Sav- ior on the|judg- ment throne; Ma- ny|
w: 4.~Ev- ery|hour we spend in the|Mas- ter’s cause|Will be weighed by mer- cy ’gainst His|brok- en laws; Ev- ery|
w: 5.~Let us|then live close to the|bleed- ing side|Of that pre- cious Sav- ior, who for|us hath died; For if|
 [EG]2 G2 [EG]2 G>G | [^DF]2 E2 [DB]4 | [GB]>[Gc] [Gd]>[GB] A>[Ac] [GB]>[EA] | %8
w: ev- ery thought and each|word you say,|You will have to an- swer, on the|
w: way you act, while on|earth you stay,|Will con- demn or save you on the|
w: deeds that here we would|hide a- way|Will be heard by mill- ions, on the|
w: song we sing, ev- ery|prayer we pray,|Will be wait- ing for us on the|
w: we love Him and His|voice o- bey,|Joy- ful- ly we’ll meet Him, on the|
 [DG]2 [DF]2 !fermata![DG]2 ||"^Refrain" [GB]>[Gc] | [Gd]2 [Ge]2 [Gd]2 [FB]>[FA] | %11
w: judg- ment day.|||
w: judg- ment day.|||
w: judg- ment day.|On the|judg- ment day, dread- ful|
w: judg- ment day.|||
w: judg- ment day.|||
 [EG]2 [EG]2 [^DF]4 | [CE]>[C^D] [CE]>[=DF] [DG]>[DF] [DG][EA] | %13
w: ||
w: ||
w: judg- ment day,|We shall meet our Sav- ior on the|
w: ||
w: ||
 [DB]2 [^CB]2 !fermata![DA]2 [GB]>[G^c] | [Gd]2 [Ge]2 [Gd]2 [FB]>[FA] | [EG]2 [EG]2 [^DB]4 | %16
w: |||
w: |||
w: judg- ment day; Then what|will you do? Oh, what|will you say|
w: |||
w: |||
 [CE]>[C^D] [CE]>[=DF] [DG]>[DF] [DG][EA] | [DB]2 A2 !fermata![B,G]2 |] %18
w: ||
w: ||
w: When you stand be- fore Him on the|judg- ment day?|
w: ||
w: ||
V:2
 x2 | x8 | x8 | E2 x/ E2 x7/2 | x4 E2 x2 | x8 | x2 E2 x4 | x4 A3/2 x5/2 | x6 || x2 | x8 | x8 | x8 | %13
 x8 | x8 | x8 | x8 | x2 (DC) x2 |] %18
V:3
 z2 | [E,G,B,]2 z2 [E,G,B,]2 z2 | [B,,F,B,]2 z2 [B,,F,B,]4 | [D,G,B,]2 z2 [E,G,B,]2 z2 | %4
 [E,G,B,]2 [B,,B,]2 [E,G,B,]2 z2 | [E,G,B,]2 z2 [E,G,B,]2 z2 | [B,,F,B,]2 z2 [B,,F,B,]4 | %7
 G,>[G,A,] [G,B,]>[G,E] [C,E]>[A,,E] [B,,D]>[C,C] | [D,B,]2 (A,C) !fermata![G,,G,B,]2 || %9
 G,>[G,A,] | [G,B,]2 [G,C]2 [G,B,]2 [D,B,]>[^D,B,] | [E,B,]2 [E,B,]2 [B,,B,]4 | %12
 [C,G,]>[C,F,] [C,G,]>[C,A,] [B,,G,]>[A,,C] [G,,B,][C,A,] | %13
 [D,G,]2 [E,G,]2 !fermata![D,F,]2 G,>[G,A,] | [G,B,]2 [G,C]2 [G,B,]2 [D,B,]>[^D,B,] | %15
 [E,B,]2 [E,B,]2 [B,,F,B,]4 | [C,G,]>[C,F,] [C,G,]>[C,A,] [B,,G,]>[A,,C] [G,,B,][C,A,] | %17
 [D,G,]2 [D,F,]2 [G,,D,G,]2 |] %18
V:4
 x2 | x8 | x8 | x8 | x8 | x8 | x8 | G,3/2 x13/2 | x2 D,2 x2 || G,3/2 x/ | x8 | x8 | x8 | %13
 x6 G,3/2 x/ | x8 | x8 | x8 | x6 |] %18

